X:1
T:Pense non seulement
T:Jean de Castro
T:Source : Livre de chansons à 3 parties---Paris---A.le Roy & R.Ballard---1575. Editor : André Vierendeels (29/01/16).
T:Notes : Original clefs : G2, C2, C3 Editorial accidentals above the staff Dedicated to Monsieur Justinien Pense Lionnoys
T:Pense non seulement
T:©
T:©
T:©
T:©
T:©
T:©
C:Jean de Castro
Z:©
%%score [ 1 2 3 ]
L:1/8
Q:1/4=109
M:2/2
K:F
V:1 treble nm="Soprano 1" snm="S 1"
V:2 treble nm="Soprano 2" snm="S 2"
V:3 treble-8 nm="Tenor" snm="T"
V:1
 d4 c4- | c2 A2 B3 G | A4 z2 d2 | c2 A2 B2 G2 | F2 f4 e2- | e2 c2 d2 B2 | A2 d4 G2 | z2 c2 c2 d2 | %8
w: Pen- se|_ non seu- le-|ment, Pen-|se non seu- le-|ment, Pen- se|_ non seu- le-|ment se dit,|se dit es-|
 B2 c2 A4 | z2 f4 e2 | d2 d4 =B2 | c6 B2 | A2 G2 A3 A | B4 B4 | A4 B4- | B4 c4- | c4 d4 | c8 | d8 | %19
w: tre'a- ma- teur,|Pen- se|non seu- le-|ment se|dit es- tre'a- ma-|teur de|la dou-|* ce'ar-|* mo-|ni-|e,|
 f8- | f8 | d8- | d8- | d8- | d8 | B6 B2 | B4 A4 | z4 d4 | f4 c4 | e6 f2 | g4 z2 G2 | B4 F4 | %32
w: et|_|me-||||lo- di-|eux sons:|mays|en- cor'|par ef-|fect, mays|en- cor'|
 A6 B2 | c4 G4 | d4 f4 | e4 d4- | d2 ^cB c4 | d4 z2 d2 | d2 =B2 c2 d2 | G2 B2 A4- | A2 G2 F2 E2 | %41
w: par ef-|fect, faict|veoir que|pro- tec-||teur il|est de la mu-|si- qu'et de|_ ses nour- ri-|
 D2 A2 A2 A2 | B2 c2 d4- | d2 c2 B2 B2 | A6 A2 | G2 d2 d2 d2 | e3 f g4 | c4 z2 A2 | d3 d c2 c2 | %49
w: çons, il est de|la mu- si-|* qu'et de ses|nour- ri-|çons, il est de|la mu- si-|que et|de ses nour- ri-|
 =B4 d4 | d2 c2 B2 A2 | G2 D2 z2 d2 | c4 B4 | A6 A2 | !fermata!=B8 |] %55
w: çons, il|est de la mu-|si- que et|de ses|nour- ri-|çons.|
V:2
 z8 | z4 G4 | F6 D2 | E2 F2 G2 B2 | A2 F2 G4- | G2 A2 D2 G2- | G2 F2 B4 | A6 A2 | G2 G4 ^F2 | %9
w: |Pen-|se non|seu- le- ment, Pen-|se non seu-|* le- ment, se|_ dit es-|tre'a- ma-|teur, Pen- se|
 G2 A4 c2 |"^-natural" B6 G2 | A4 G4 | ^F2 G3 F/E/ F2 | G4 D4 | F4 F4 | G6 F2 | G2 A2 B4- | %17
w: non seu- le-|ment se|dit es-|tre'a- ma- * * *|teur de|la dou-|ce'ar- *||
 B2 B2 A4 | B4 B4 | c4 d4- | d2 c2 A4 | B4 B4 | A4 B4- | B2 F2 G4 | F4 ^F4 | G4 D4- | D2 G2 F4 | %27
w: * mo- ni-|e, et|me- lo-|* di- eux|sons, et|me- lo-|* di- eux|sons, et|me- lo-|* di- eux|
 G2 G2 B4- | B2 A2 z2 A2 | c4 G4 | =B6 c2 | d4 z2 D2 | F4 C4 | E6 F2 | G4 A4 | G4 ^F4 | G4 E4 | %37
w: sons: mays en-|* cor' mays|en- cor'|par ef-|fect, mays|en- cor'|par ef-|fect, faict|veoir que|pro- tec-|
 ^F2 F2 G2 A2 | B2 G2 A2 ^F2 | z2 G4 F2- | F2 D2 D2 C2 | D2 ^F2 F2 F2 | G2 A2 B4- | B2 A2 G2 G2 | %44
w: teur il est de|la mu- si- que|et de|_ ses nour- ri-|çons, il est de|la mu- si-|* su'et de ses|
 ^F6 F2 | G2 D2 B2 B2 | c2 A2 G4 | A4 F4- | F2 D2 A2 A2 |"^b" D4 B4 | A2 G2 F2 E2 | D2 G2 z2 B2 | %52
w: nour- ri-|çons, il est de|la mu- si-|quet de|_ ses nour- ri-|çons, il|est de la mu-|si- que et|
 A2 A2 G4- | G4 ^F4 | !fermata!G8 |] %55
w: de ses nour-|* ri-|çons.|
V:3
 z8 | z8 | z8 | z8 | d4 c4- | c2 A2 B2 G2 | d4 g4 |"^b" f6 d2 | _e2 c2 d4 | z2 d4 c2 | g8 | f4 c4 | %12
w: ||||Pen- se|_ non seu- le-|ment, Pen-|se non|seu- le- ment|se dit|es-|tre'a- ma-|
 d8 | z4 G4 | d4 d4 | _e6 d2 | c4 B4 | f8 | B4 B4 | F4 B4- | B2 c2 d4 | G4 g4 | d4 g4- | g2 a2 b4 | %24
w: teur|de|la dou-|ce'ar- *|* mo-|ni-|e, et|me- lo-|* di- eux|sons, et|me- lo-|* di- eux|
 B4 d4 | G4 B4- | B2 c2 d4 | G8 | z2 d2 f4 | c4 e4- | e2 f2 g4 | z2 G2 B4 | F4 A4- | A2 B2 c4 | %34
w: sons, et|me- lo-|* di- eux|sons:|may en-|ccor' par|_ ef- fect,|mays en-|cor' par|_ ef- fect,|
 z4 F4 | c4 d4 | G4 A4 | d4 z2 d2 | g2 g2 f2 d2 | c2 G2 z2 d2 | A2 B2 A2 A2 | d8 | z8 | z8 | %44
w: faict|veoir que|pro- tec-|teur il|est de la mu-|si- que et|de ses nour- ri-|çons,|||
 z2 d2 d2 d2 | e2 f2 g4 | c8 | z4 d4 | B3 B A2 A2 | G4 z2 g2 | f2 e2 d2 c2 | B4 G4 | A4 B4 | %53
w: il est de|la mu- si-|que|et|de ses nour- ri-|çons, il|est de la mu-|si- qu'et|de ses|
 c4 d4 | !fermata!G8 |] %55
w: nour- ri-|çons.|

